X:60
T:tri phleth
R:tamed cenol
O:traditional welsh
Z:crm
M:6/8
L:1/8
Q:3/8=100
K:Edor
GF|E2E G2B|A2F FGF|E2{GD}E G2A|B4zE|
EzB BAG|A2B B2c|d2B G2E|F3 FGF||
E2E E2e|d2=c BGA|{c}B2B AGF|E3 EGF|
E3 E2e|d2=c BGA|B>=cB AGF|E4||
